X: 1
T: Alan's Australian Waltz
S: <rob.say:milecastle27.co.uk> tradtunes 2014-1-4
N: Trad.  Australian waltz of unknown origin.  Graham McDonald wrote: I  asked  my
N: friend, accordionist Ray Mulligan who promptly identified all of them. Part A &
N: B are 'Sad the Cuckoo is Calling' collected from Joe Cashmere.  The C  part  is
N: "Your Smile Tonight Mother Dear'. This is based on 5th Fig, Palermo Quadrilles,
N: 1855 by Charles d 'Albert.  It was collected locally from Harry Cotter.  Part D
N: could be the 3rd line from 'A Starry Night For A Ramble'.
M: 3/4
L: 1/8
K: F
P: A
A>B |\
c4A2 | A2B2c2 | d2G2G2 | G4F2 |\
E2c2c2 |1 d2c2B2 | A4 A2 | A4 :|2 B2A2G2 | F3FF2 | F4 |]
P: B
|: A>B |\
c>Ac>Ac>A | c>Ac>Ac>A | c2a2a2 | a2g2f2 |\
cg2gg2 | g2f2e2 |1 cf2fef | A4 :|2 f3f f2 | f2 A2B2 |]
P: C
|: c3dc2 | A2c2f2 | a3aa2 | a4g2 |\
f3ef2 | g2f2d2 | c6 | c4A2 |
G4A2 | B4c2 | e3ee2 | e4d2 |\
c3cc2 |1 c4B2 | A6- | A4B2 :|2 a4g2 | f3ff2 | f2g2a2 |]
P: D
|: b3bb2 | b2a2g2 | a3aa2 | a2g2f2 |\
g3gg2 |1 g2f2e2 | f3ff2 | f2g2a2 :|2 g2d2e2 | f3ff2 | f4 |]
